X:1
T:Pange lingua gloriosi - Victoria
T:#
%%score [ 1 2 3 4 ]
L:1/8
Q:1/4=130
M:16/4
K:C
V:1 treble nm="S" snm="S"
V:2 treble nm="A" snm="A"
V:3 treble-8 nm="T" snm="T"
V:4 treble nm="B" snm="B"
V:1
 z22 | z22 || z18 |[M:16/4] z20 || z18 | z20 || %6
w: ||||||
[K:Bb][K:treble][Q:1/4=200][Q:1/4=200][Q:1/4=200][Q:1/4=200] G12 G4 | G8 F8 | B8 G4 (B4- | %9
w: No- bis|da- tus,|no- bis na\-|
 B2 c2 d2 B2 c8) | B4 d8 d4 | (c6 B2 A2 G2 A4) | B8 z8 | (G6 A2 B4) G4 | A4 B4 (c8 | B4 G4 F6 G2 | %16
w: |tus, no- bis|na\- * * * *|tus|Ex * * in-|ta- cta Vir\-||
 A2 B2 c2 A2 B4 c4- | c2 B2 B8) A4 | B8 z4 F4 | G8 B8- | B4 A4 G4 G4 | (F6 G2 A2 B2 c2 A2 | %22
w: |* * * gi-|ne, Et|in mun\-|* do con- ver-|sa\- * * * * *|
 B4 G8 F4) | G16 | z4 c8 d4 | B4 A4 G4 G4 | A8 z4 B4- | B4 c4 A4 F4 | (G2 F2 F8) =E4 | %29
w: |tus,|Spar- so|ver- bi se- mi-|ne, spar\-|* so ver- bi|se\- * * mi-|
 (F2 G2 A2 B2 c8) | z4 d8 d4 | d8 c8- | c8 d8 | e8 (f8- | f4 e2 d2 e6 d2 | c8) B8 | z4 f8 d4 | %37
w: ne, * * * *|Su- i|mo- ras|* in-|co- la\-||* tus|Mi- ro|
 e4 d4 (c8 | d12) d4 | =B4 c8 d4 |[Q:1/4=198] B4[Q:1/4=196] G4[Q:1/4=194] (B4[Q:1/4=192] c4 | %41
w: clau- sit or\-|* di-|ne, mi- ro|clau- sit or\- *|
[Q:1/4=190] d4[Q:1/4=188] e6[Q:1/4=186] d2[Q:1/4=184] c4- | %42
w: |
[Q:1/4=182] c4)[Q:1/4=181] (=B2[Q:1/4=180] A2)[Q:1/4=180] B16 || %43
w: * di\- * ne.|
[M:16/4][Q:1/4=130][Q:1/4=130][Q:1/4=130][Q:1/4=130] z22 | z22 || z18 |[M:16/4] z20 || z18 | z20 || %49
w: ||||||
[Q:1/4=200][Q:1/4=200][Q:1/4=200][Q:1/4=200] z16 | z16 | z16 | G12 G4 | G8 F8 | B12 B4 | (c8 d8) | %56
w: |||Ver- bum|ca- ro,|pa- nem|ve\- *|
 d16 | z8 (d6 e2 | f12) e4 | e8 d8 | c8 e8 | (d8 c8 | B16 | z8 B8- | B8 c8 | e8 d8 | c8 B8 | %67
w: rum|Ver\- *|* bo|car- nem|ef- fi-|cit: *||Fit\-|* que|san- guis|Chri- sti|
 (c12 =B4) | c8 z4 c4- | c4 d8 B4- | B4 G4 c6 B2 | A4 G4 A6 GF | G4) G4 F8- | F8 z8 | z16 | z16 | %76
w: me\- *|rum Et|* si sen\-|* sus de\- *||* fi- cit:||||
 B12 B4 | B8 G8 | A8 B8 | (c6 B2 c4 d4- | d2 c2 c8 =B4) | c16 | z16 | z16 | z8 c8- | c8 d8 | %86
w: Ad fir-|man- dum|cor sin-|ce\- * * *||rum|||So\-|* la|
 B8 G8 | (B8 A4 G4- | G4 ^F2 =E2 F4) F4 | G16- | G16 | G16 | G16 || %93
w: fi- des|suf\- * *|* * * * fi-|cit.||||
[M:16/4][Q:1/4=130][Q:1/4=130][Q:1/4=130][Q:1/4=130] z22 | z22 || z18 |[M:16/4] z20 || z18 | z20 || %99
w: ||||||
[M:3/1][Q:1/4=400][Q:1/4=400][Q:1/4=400][Q:1/4=400] B16 B8 | B16 c8 | d16 c8 | (B8 A16) | G16 z8 | %104
w: Ge- ni-|to- ri,|ge- ni-|to\- *|que|
 B16 A8 | (G12 A4 B4 c4 |[M:3/1] d4 e4 f8) B8 | (B8 c4 d4) c8 | d16 z8 | B16 c8 | e16 d8 | %111
w: Laus et|iu\- * * *|* * * bi-|la\- * * ti-|o,|Sa- lus,|ho- nor,|
 c16 =B8 | (c16 =B8) | c16 z8 | c16 d8 | (B8 A8) G8 | A8 G16 | A16 z8 | d16 d8 | d16 e8 | %120
w: vir- tus|quo\- *|que|Sit et|be\- * ne-|di- cti-|o:|Pro- ce-|den- ti|
 c8 (d4 e4 f4 d4 | e8) d16 | c16 z8 | A16 B8 | (G8 F8) E8 | G16 ^F8 ||[Q:1/4=200] G4 (d6 c2 B2 A2 | %127
w: ab u\- * * *|* tro-|que|Com- par|sit * lau-|da- ti-|o. A\- * * *|
 G4) c4[Q:1/4=197] (e4[Q:1/4=193] d4- | %128
w: * men, A\- *|
[Q:1/4=190] d4[Q:1/4=187] c2[Q:1/4=185] B2[Q:1/4=183] c2[Q:1/4=181] G2[Q:1/4=178] c4- | %129
w: |
[Q:1/4=175] c4[Q:1/4=172] =B2[Q:1/4=170] A2)[Q:1/4=170] B16 |] %130
w: * * * men.|
V:2
 z22 | z22 || z18 |[M:16/4] z20 || z18 | z20 ||[K:Bb][K:treble] z16 | z8 D8- | D4 D4 D8 | %9
w: |||||||No\-|* bis da-|
 B,4 B8 A4 | (G4 F2 E2 F6 D2 | E2 F2 G8 ^F4) | G4 (D6 E2 F4) | E4 D8 B,4 | C4 D4 G,4 (G4- | %15
w: tus, no- bis|na\- * * * *||tus, Ex * *|in- ta- cta|Vir- gi- ne, ex|
 G2 A2 B8) A4 | A8 G8 | F12 C4 | D16 | z4 D8 E4 | F8 B,4 (B,4- | B,2 C2 D2 E2 F8) | D4 (E8 D2 C2 | %23
w: * * * in-|ta- cta|Vir- gi-|ne,|Et in|mun- do con\-||ver- sa\- * *|
 D8) C4 G4- | G4 A4 F8 | G4 F8 =E4 | F4 F4 D4 G4- | G4 E4 (F6 E2 | D8) C8 | C8 z4 F4- | F4 F4 F8 | %31
w: * tus, Spar\-|* so ver-|bi se- mi-|ne, spar- so ver\-|* bi se\- *|* mi-|ne, Su\-|* i mo-|
 D4 F8 =E4 | (F12 D4 | G8 F6 G2 | _A4 G2 F2) G8 | z4 F8 G4 | F4 D4 (F6 EF | G4 F8 =E4 | %38
w: ras in- co-|la\- *||* * * tus|Mi- ro|clau- sit or\- * *||
 F4 G8) ^F4 | (G2 F2 E2 D2 E4) D4 | E8 D4 C4 | B,8 C8 | D24 ||[M:16/4] z22 | z22 || z18 | %46
w: * * di-|ne, * * * * mi-|ro clau- sit|or- di-|ne.||||
[M:16/4] z20 || z18 | z20 || z16 | D12 D4 | D8 C4 (F4- | F4 E2 D2 E4 D2 C2 | %53
w: ||||Ver- bum|ca- ro, pa\-||
 D4) =E4 (F2 _E2 D2 C2 | D8) B,4 B4- | B4 A4 (G4 F2 E2 | F2 E2 D2 C2 D2 B,2 B4- | B2 G2 A4 B8) | %58
w: * nem ve\- * * *|* rum, pa\-|* nem ve\- * *|||
 A8 z8 | (G6 A2 B8- | B4) A4 G8 | F4 B8 A4 | B4 F4 G4 B4- | B4 A4 G8 | F4 (G8 A4 | %65
w: rum|Ver\- * *|* bo car-|nem ef- fi-|cit: Fit- que san\-|* guis Chri-|sti me\- *|
 G2 F2 G2 A2 B4 A2 G2 | A8 G4 F4 | G4 A4 F8) | G8 z8 | A8 B8 | (G6 F2 G4) A4 | (F4 G6 F2 F4- | %72
w: |||rum|Et si|sen\- * * sus|de\- * * *|
 F4) =E4 F8 | z4 F8 F4 | F8 D4 E4 | F4 (G6 F2 D4 | E4 D2 C2 D2 E2 F4- | F4 =E2 D2 E8) | F8 z4 B4 | %79
w: * fi- cit:|Ad fir-|man- dum cor|sin- ce\- * *|||rum ad|
 G4 A4 F4 B4- | B4 A4 F8 | G8 z4 F4 | G8 F4 D4 | (F4 G4 F6 G2 | A2 G2 B8) (A2 G2) | F4 A8 B4- | %86
w: fir- man- dum cor|* sin- ce-|rum So-|la fi- des|suf\- * * *|* * * fi\- *|cit, so- la|
 B4 G8 E4 | F12 (E2 D2) | C8 z4 C4 | D4 (E6 D2 C4) | =B,4 (C6 _B,2 E4 | D4 E8) D4 | D16 || %93
w: * fi- des|suf- fi\- *|cit so-|la fi\- * *|des suf\- * *|* * fi-|cit.|
[M:16/4] z22 | z22 || z18 |[M:16/4] z20 || z18 | z20 ||[M:3/1] G16 G8 | G16 A8 | B16 A8 | %102
w: ||||||Ge- ni-|to- ri,|ge- ni-|
 (G16 ^F8) | G16 z8 | G16 C8 | (C8 G8) G8 |[M:3/1] (F4 G4 A4 F4 G8 | F8 A4 B8) A4 | B16 z8 | %109
w: to\- *|que|Laus et|iu\- * bi-|la\- * * * *|* * * ti-|o,|
 G16 A8 | B16 B8 | A16 G8 | (F8 G16) | =E16 z8 | F16 F8 | (G8 F8) D8 | F16 =E8 | F16 z8 | F16 F8 | %119
w: Sa- lus,|ho- nor,|vir- tus|quo\- *|que|Sit et|be\- * ne-|di- cti-|o:|Pro- ce-|
 F16 B,8 | F16 D8 | (G12 F4 D8) | =E16 z8 | F16 F8 | (E8 D8) C8 | D16 D8 || (=B,6 C2 D8) | %127
w: den- ti|ab u-|tro\- * *|que|Com- par|sit * lau-|da- ti-|o. * *|
 (E8 C4 D4 | E16) | D24 |] %130
w: A\- * *||men.|
V:3
[K:Bb]"^Tomas Luis de Victoria\n(c.1548-1611)""^Pange lingua gloriosi" D2 D2 E2 (D2 C2) F2 F2 (G2 B2) B4 | %1
w: Pan- ge lin- gua * glo- ri- o\- * si|
 (B2 c2) B2 B2 A2 G2 B2 (A2 G2 F4) || F2 G2 B2 A2 G2 F2 G2 F4 | G2 A2 F2 F2 D2 G2 (G4 C4) || %4
w: Cor\- * po- ris my- ste- ri- um * *|San- gui- nis- que pre- ti- o- si|Quem in mun- di pre- ti- um *|
 D2 F2 F2 D2 F2 G2 G2 F4 | G2 A2 F2 (G2 F2) (E2 D2) C2 D4 || z16 | z16 | G12 G4 | G8 F8 | B12 B4 | %11
w: Fru- ctus ven- tris ge- ne- ro- si|Rex ef- fu- dit * gen\- * ti- um.|||No- bis|da- tus,|no- bis|
 (c8 d8) | d8 z8 | z8 (d6 e2 | f12) e4 | e8 d8 | c8 e8 | (d8 c8 | B16 | z8 B8 | c8 e8- | e4 d4 c8 | %22
w: na\- *|tus|Ex *|* in-|ta- cta|Vir- gi-|ne *||Et|in mun\-|* do con-|
 B8 (c8- | c4 =B4) c8- | c8 z8 | z8 c8- | c4 d4 B8 | G4 c6 B2 c4 | B8) G8 | F8 z8 | B12 B4 | %31
w: ver- sa\-|* * tus,||Spar\-|* so ver-|bi se\- * *|* mi-|ne,|Su- i|
 B8 G8 | A12 =B4 | (c12 =B4) | c16 | z4 c4 d8- | d8 B8- | B8 G8 | B8 A8 | G16- | G16 | G16 | G24 || %43
w: mo- ras|in- co-|la\- *|tus|Mi- ro|* clau\-|* sit|or- di-|ne.||||
[M:16/4][K:treble-8] D2 D2 E2 (D2 C2) F2 F2 (G2 B2) B4 | (B2 c2) B2 B2 A2 G2 B2 (A2 G2 F4) || %45
w: In su- pre- mae * no- cte coe\- * nae|Re\- * cum- bens cum fra- tri- bus * *|
 F2 G2 B2 A2 G2 F2 G2 F4 | G2 A2 F2 F2 D2 G2 (G4 C4) || D2 F2 F2 D2 E2 F2 G2 F4 | %48
w: Ob- ser- va- ta le- ge ple- ne|Ci- bis in le- ga- li- bus *|Ci- bum tur- bae du- o- de- nae|
 G2 A2 F2 (G2 F2) (E2 D2) C2 D4 || G12 G4 | G8 F8 | B12 A4 | (B4 c8 =B2 A2 | =B4 c4 d4 _B4- | %54
w: Se dat su- is * ma\- * ni- bus.|Ver- bum|ca- ro,|pa- nem|ve\- * * *||
 B2 A2 G2 F2 G8) | F8 (B6 c2 | d2 e2 f8) g4 | (e4 f4) B4 (d4- | d2 e2 f4) B4 (c4- | %59
w: |rum, pa\- *|* * * nem|ve\- * rum ver\-|* * * bo car\-|
 c2 d2 e2 f2 g4) (d2 e2) | (f6 e2 c2 d2 e4 | B2 c2 d2 e2 f4) F4 | B8 z4 B4 | c8 e8 | d4 e8 f4 | %65
w: * * * * * nem *|ef\- * * * *|* * * * * fi-|cit: Fit-|que san-|guis Chri- sti|
 (c2 d2 e2 f2 g4 f4- | f2 e2 c2 d2 e4 d4 | e4 f4 d8) | c16 | f8 g8 | e8 c4 (f4- | f4 e4 d8) | %72
w: me\- * * * * *|||rum|Et si|sen- sus de\-||
 c8 F8 | z8 B8- | B4 B4 B4 G4 | A4 B4 (c4 B2 A2 | G6 A2 B6 A2 | G16) | F4 f4 d4 (e4- | %79
w: fi- cit:|Ad|* fir- man- dum|cor sin- ce\- * *|||rum, ad fir- man\-|
 e2 c2 f8) B4 | f6 e2 d8 | c8 z8 | z4 c4 d8 | B4 G4 (B2 c2 d2 B2 | c4) B4 f8 | z4 f8 g4- | %86
w: * * * dum|cor sin- ce-|rum|So- la|fi- des suf\- * * *|* fi- cit,|so- la|
 g4 e8 c4 | (B2 c2 d2 B2 c6 B2 | A2 G2 A8) A4 | G8 z4 c4 | d4 (e6 d2 c4) | =B4 c8 G4 | G16 || %93
w: * fi- des|suf\- * * * * *|* * * fi-|cit so-|la fi\- * *|des suf- fi-|cit.|
[M:16/4][K:treble-8] D2 D2 E2 (D2 C2) F2 F2 (G2 B2) B4 | (B2 c2) B2 B2 A2 G2 B2 (A2 G2 F4) || %95
w: Tan- tum er- go * sa- cra- men\- * tum|Ve\- * ne- re- mur cer- nu- i * *|
 F2 G2 B2 A2 G2 F2 G2 F4 | G2 A2 F2 F2 D2 G2 (G4 C4) || D2 F2 F2 D2 F2 G2 G2 F4 | %98
w: Et an- ti- quum do- cu- men- tum|No- vo ce- dat ri- tu- i *|Prae- stet fi- des sup- ple- men- tum|
 G2 A2 F2 (G2 F2) (E2 D2) C2 D4 ||[M:3/1][K:treble-8] d16 d8 | d16 f8 | f16 f8 | (d12 c4 A8) | %103
w: Sen- su- um de\- * fe\- * ctu- i.|Ge- ni-|to- ri,|ge- ni-|to\- * *|
 =B16 z8 | (d12 e4 f8) | e8 e8 d8- |[M:3/1][K:treble-8] d8 c8 e8 | (d8 c4 B4 c8 | B16) z8 | %109
w: que|Laus * *|et iu- bi\-|* la- ti-|o, * * *||
 (e8 d8) f8 | g16 f8 | (f12 e4 d8) | c8 d16 | c16 z8 | A16 B8 | (G8 A8) B8 | c16 c8 | c16 z8 | %118
w: Sa\- * lus,|ho- nor,|vir\- * *|tus quo-|que|Sit et|be\- * ne-|di- cti-|o:|
 B16 B8 | B16 G8 | A8 B16 | (c16 =B8) | c16 z8 | c16 d8 | B16 G8 | B8 A16 || G16 | G16- | G16 | %129
w: Pro- ce-|den- ti|ab u-|tro\- *|que|Com- par|sit lau-|da- ti-|o.|A\-||
 G24 |] %130
w: men.|
V:4
 z22 | z22 || z18 |[M:16/4] z20 || z18 | z20 ||[K:Bb][K:bass] z16 | z16 | z16 | z16 | z16 | z16 | %12
w: ||||||||||||
 (G,6 A,2 B,4) A,4 | G,12 G,4 | F,4 D,4 C,8 | z8 (D,6 E,2 | F,4) F,4 E,4 C,4 | (D,6 E,2 F,4) F,4 | %18
w: Ex * * in-|ta- cta|Vir- gi- ne|ex *|* in- ta- cta|Vir\- * * gi-|
 B,,8 z4 D,4 | E,4 G,8 G,4 | F,4 F,4 (E,2 F,2 G,2 A,2 | B,6 A,2 F,8 | G,4 E,4 _A,8 | G,8) C,8- | %24
w: ne Et|in mun- do|con- ver- sa\- * * *|||* tus,|
 C,8 z8 | z16 | F,8 G,4 E,4- | E,4 C,4 (F,8 | B,,8) C,8 | F,16 | z4 B,,8 B,,4 | B,,8 C,8 | %32
w: ||Spar- so ver\-|* bi se\-|* mi-|ne,|Su- i|mo- ras|
 (F,6 =E,2 F,4) G,4 | (C,2 D,2 E,2 C,2 D,8) | C,8 z4 C4- | C4 A,4 B,4 G,4 | B,12 B,,4 | %37
w: in\- * * co-|la\- * * * *|tus Mi\-|* ro clau- sit|or- di-|
 E,4 B,,4 C,8 | B,,6 C,2 D,4 D,4 | G,,4 C,8 B,,4 | (E,6 F,2 G,4) C,4 | (G,2 F,2 E,2 D,2 C,4) C,4 | %42
w: ne, mi- ro|clau- sit or- di-|ne, mi- ro|clau\- * * sit|or\- * * * * di-|
 G,,24 ||[M:16/4] z22 | z22 || z18 |[M:16/4] z20 || z18 | z20 ||[M:2/2] z16 | z16 | z16 | z16 | %53
w: ne.|||||||||||
 z16 | z16 | z16 | z16 | z16 | z16 | z16 | z16 | z16 | z16 | z16 | z16 | z16 | z16 | z16 | z16 | %69
w: ||||||||||||||||
 z16 | z16 | z16 | z16 | z16 | z16 | z16 | z16 | z16 | z16 | z16 | z16 | z16 | z16 | z16 | z16 | %85
w: ||||||||||||||||
 z16 | z16 | z16 | z16 | z16 | z16 | z16 | z16 ||[M:16/4] z22 | z22 || z18 |[M:16/4] z20 || z18 | %98
w: |||||||||||||
 z20 ||[M:3/1] G,16 G,8 | G,16 F,8 | (B,12 A,4 F,8) | G,8 D,16 | G,16 z8 | G,16 F,8 | %105
w: |Ge- ni-|to- ri,|ge\- * *|ni- to-|que|Laus et|
 (C,4 D,4 E,4 F,4 G,4 A,4 |[M:3/1] B,8 F,8) E,8 | B,8 F,16 | B,16 z8 | (E,8 G,8) F,8 | E,16 B,,8 | %111
w: iu\- * * * * *|* * bi-|la- ti-|o,|Sa\- * lus,|ho- nor,|
 F,16 (G,8 | _A,8) G,16 | C,16 z8 | F,16 B,,8 | (E,8 F,8) G,8 | F,8 C,16 | F,16 z8 | B,,16 B,,8 | %119
w: vir- tus|* quo-|que|Sit et|be\- * ne-|di- cti-|o:|Pro- ce-|
 B,,16 E,8 | (F,4 E,4 D,4 C,4 D,8) | C,8 G,16 | C,16 z8 | F,16 D,8 | (E,8 B,,8) C,8 | G,,8 D,16 || %126
w: den- ti|ab * * * *|u- tro-|que|Com- par|sit * lau-|da- ti-|
 G,,16 | (C,12 =B,,4 | C,16) | G,,24 |] %130
w: o.|A\- *||men.|

